images/unUSDC.svg

<svg height="250" viewBox="0 0 250 250" width="250" xmlns="http://www.w3.org/2000/svg" xmlns:xlink="http://www.w3.org/1999/xlink"><linearGradient id="a" gradientUnits="userSpaceOnUse" x1="60.19816791278" x2="249.16055933273" y1="-.00000229358" y2="43.7715599832"><stop offset="0" stop-color="#2e73ff"/><stop offset=".894147" stop-color="#184ce8"/></linearGradient><path d="m248.820312 124.410156c0 68.710938-55.699218 124.410156-124.410156 124.410156-68.710937 0-124.410156-55.699218-124.410156-124.410156 0-68.710937 55.699219-124.410156 124.410156-124.410156 68.710938 0 124.410156 55.699219 124.410156 124.410156zm0 0" fill="url(#a)"/><path d="m153.121094 187.890625c-2.632813-2.9375-6.191406-4.40625-10.675782-4.40625-2.636718 0-4.972656.539063-7.007812 1.609375-2 1.050781-3.59375 2.417969-4.789062 4.105469v-5.371094h-13.664063v20.550781c0 2.1875-.578125 3.90625-1.730469 5.160156-1.160156 1.25-2.730468 1.875-4.71875 1.875-1.941406 0-3.5-.625-4.679687-1.875-1.179688-1.253906-1.769531-2.972656-1.769531-5.160156v-20.550781h-13.523438v22.261719c0 5.050781 1.308594 9.046875 3.917969 11.984375 2.613281 2.933593 6.183593 4.402343 10.714843 4.402343 2.636719 0 4.972657-.535156 7.007813-1.605468 2.03125-1.066406 3.628906-2.46875 4.78125-4.199219v5.464844h13.664063v-21.765625c.179687-1.621094.738281-2.933594 1.671874-3.945313 1.152344-1.25 2.746094-1.878906 4.78125-1.878906 1.941407 0 3.492188.628906 4.648438 1.878906 1.15625 1.253907 1.734375 2.96875 1.734375 5.15625v20.554688h13.59375v-22.328125c0-5.007813-1.320313-8.980469-3.957031-11.917969zm0 0" fill="#fff"/><path d="m210.792969 179.753906c10.25-15.964844 16.195312-34.960937 16.195312-55.34375 0-56.65625-45.925781-102.582031-102.582031-102.582031s-102.582031 45.925781-102.582031 102.582031c0 20.5625 6.046875 39.710938 16.464843 55.761719 21.398438-10.644531 52.308594-17.328125 86.675782-17.328125 33.917968 0 64.464844 6.511719 85.828125 16.910156zm0 0" fill="#fff" fill-rule="evenodd"/><g fill="#2c2c2c"><path d="m141.691406 108.132812c0-9.625-5.5-12.871093-16.132812-14.425781-7.863282-1.207031-9.371094-3.175781-9.371094-7.082031 0-3.902344 2.65625-6.335938 7.742188-6.335938 4.632812 0 7.304687 1.71875 8.402343 5.691407.117188.433593.363281.820312.699219 1.09375.335938.273437.75.425781 1.171875.433593h4.066406c.265625.003907.53125-.050781.773438-.167968.242187-.113282.457031-.285156.632812-.5.171875-.210938.300781-.464844.371094-.738282.070313-.269531.085937-.558593.042969-.835937-1.289063-6.285156-5.265625-10.066406-11.5-11.25v-6.628906c0-.546875-.203125-1.070313-.566406-1.457031-.363282-.386719-.855469-.605469-1.371094-.605469h-3.871094c-.511719 0-1.003906.21875-1.367188.605469-.363281.386718-.566406.910156-.566406 1.457031v6.394531c-7.746094 1.15625-12.636718 6.601562-12.636718 13.589844 0 9.03125 5.160156 12.539062 15.953124 14.09375 7.34375 1.277344 9.433594 2.96875 9.433594 7.414062 0 4.441406-3.550781 7.425782-8.558594 7.425782-6.75 0-9.03125-3.152344-9.792968-7.234376-.089844-.46875-.328125-.890624-.671875-1.195312-.34375-.308594-.777344-.476562-1.226563-.484375h-4.414062c-.265625 0-.523438.058594-.765625.175781-.238281.117188-.449219.289063-.621094.5-.171875.214844-.296875.464844-.367187.738282-.070313.269531-.085938.550781-.039063.828124 1.121094 6.875 5.265625 11.910157 13.707031 13.121094v6.515625c0 .546875.203125 1.074219.566406 1.460938.363282.386719.855469.601562 1.367188.601562h3.871094c.515625 0 1.007812-.214843 1.371094-.601562.363281-.386719.566406-.914063.566406-1.460938v-6.515625c8.003906-1.347656 13.101562-7.234375 13.101562-14.621094zm0 0"/><path d="m111.601562 135.636719c-8.050781-2.792969-15.003906-7.871094-19.914062-14.542969-4.910156-6.675781-7.546875-14.621094-7.546875-22.765625 0-8.140625 2.636719-16.089844 7.546875-22.761719s11.863281-11.75 19.914062-14.542968c.515626-.214844.957032-.566407 1.273438-1.007813.320312-.441406.5-.960937.523438-1.496094v-3.707031c.03125-.328125-.023438-.65625-.167969-.957031s-.367188-.558594-.652344-.753907c-.28125-.191406-.613281-.308593-.957031-.339843s-.695313.023437-1.007813.160156c-10.140625 3.070313-18.984375 9.121094-25.265625 17.285156-6.277344 8.164063-9.660156 18.011719-9.660156 28.121094 0 10.113281 3.382812 19.960937 9.660156 28.125 6.28125 8.160156 15.125 14.214844 25.265625 17.285156.3125.136719.664063.191407 1.007813.160157s.675781-.152344.957031-.34375c.285156-.191407.507813-.449219.652344-.75.144531-.300782.199219-.632813.167969-.960938v-3.707031c-.023438-.535157-.203126-1.050781-.523438-1.492188-.316406-.445312-.757812-.792969-1.273438-1.007812zm0 0"/><path d="m138.195312 52.921875c-.316406-.136719-.664062-.191406-1.011718-.160156-.34375.03125-.675782.148437-.957032.339843-.28125.195313-.507812.453126-.648437.753907-.144531.296875-.203125.628906-.167969.957031v3.707031c.019532.535157.203125 1.054688.519532 1.496094.316406.441406.757812.792969 1.277343 1.007813 8.046875 2.792968 15 7.871093 19.910157 14.542968 4.914062 6.671875 7.546874 14.621094 7.546874 22.761719 0 8.144531-2.632812 16.089844-7.546874 22.765625-4.910157 6.671875-11.863282 11.75-19.910157 14.542969-.535156.191406-.992187.535156-1.3125.980469-.324219.449218-.492187.980468-.484375 1.519531v3.707031c-.035156.328125.023438.660156.167969.960938.140625.300781.367187.558593.648437.75.28125.191406.613282.3125.957032.34375.347656.03125.695312-.023438 1.011718-.160157 10.136719-3.070312 18.984376-9.125 25.261719-17.289062 6.277344-8.160157 9.660157-18.007813 9.660157-28.121094 0-10.109375-3.382813-19.957031-9.660157-28.121094-6.277343-8.164062-15.125-14.214843-25.261719-17.285156zm0 0"/></g></svg>

<svg xmlns="http://www.w3.org/2000/svg" xmlns:xlink="http://www.w3.org/1999/xlink" width="250px" height="250px" viewBox="0 0 250 250" version="1.1">
<defs>
<linearGradient id="linear0" gradientUnits="userSpaceOnUse" x1="26.246401" y1="-0.000000559633" x2="108.634003" y2="19.0844" gradientTransform="matrix(2.293578,0,0,2.293578,0,0)">
<stop offset="0" style="stop-color:rgb(18.039216%,45.09804%,100%);stop-opacity:1;"/>
<stop offset="0.894147" style="stop-color:rgb(9.411765%,29.803923%,90.980393%);stop-opacity:1;"/>
</linearGradient>
</defs>
<g id="surface1">
<path style=" stroke:none;fill-rule:nonzero;fill:url(#linear0);" d="M 248.820312 124.410156 C 248.820312 193.121094 193.121094 248.820312 124.410156 248.820312 C 55.699219 248.820312 0 193.121094 0 124.410156 C 0 55.699219 55.699219 0 124.410156 0 C 193.121094 0 248.820312 55.699219 248.820312 124.410156 Z M 248.820312 124.410156 "/>
<path style=" stroke:none;fill-rule:nonzero;fill:rgb(100%,100%,100%);fill-opacity:1;" d="M 153.121094 187.890625 C 150.488281 184.953125 146.929688 183.484375 142.445312 183.484375 C 139.808594 183.484375 137.472656 184.023438 135.4375 185.09375 C 133.4375 186.144531 131.84375 187.511719 130.648438 189.199219 L 130.648438 183.828125 L 116.984375 183.828125 L 116.984375 204.378906 C 116.984375 206.566406 116.40625 208.285156 115.253906 209.539062 C 114.09375 210.789062 112.523438 211.414062 110.535156 211.414062 C 108.59375 211.414062 107.035156 210.789062 105.855469 209.539062 C 104.675781 208.285156 104.085938 206.566406 104.085938 204.378906 L 104.085938 183.828125 L 90.5625 183.828125 L 90.5625 206.089844 C 90.5625 211.140625 91.871094 215.136719 94.480469 218.074219 C 97.09375 221.007812 100.664062 222.476562 105.195312 222.476562 C 107.832031 222.476562 110.167969 221.941406 112.203125 220.871094 C 114.234375 219.804688 115.832031 218.402344 116.984375 216.671875 L 116.984375 222.136719 L 130.648438 222.136719 L 130.648438 200.371094 C 130.828125 198.75 131.386719 197.4375 132.320312 196.425781 C 133.472656 195.175781 135.066406 194.546875 137.101562 194.546875 C 139.042969 194.546875 140.59375 195.175781 141.75 196.425781 C 142.90625 197.679688 143.484375 199.394531 143.484375 201.582031 L 143.484375 222.136719 L 157.078125 222.136719 L 157.078125 199.808594 C 157.078125 194.800781 155.757812 190.828125 153.121094 187.890625 Z M 153.121094 187.890625 "/>
<path style=" stroke:none;fill-rule:evenodd;fill:rgb(100%,100%,100%);fill-opacity:1;" d="M 210.792969 179.753906 C 221.042969 163.789062 226.988281 144.792969 226.988281 124.410156 C 226.988281 67.753906 181.0625 21.828125 124.40625 21.828125 C 67.75 21.828125 21.824219 67.753906 21.824219 124.410156 C 21.824219 144.972656 27.871094 164.121094 38.289062 180.171875 C 59.6875 169.527344 90.597656 162.84375 124.964844 162.84375 C 158.882812 162.84375 189.429688 169.355469 210.792969 179.753906 Z M 210.792969 179.753906 "/>
<path style=" stroke:none;fill-rule:nonzero;fill:rgb(17.254902%,17.254902%,17.254902%);fill-opacity:1;" d="M 141.691406 108.132812 C 141.691406 98.507812 136.191406 95.261719 125.558594 93.707031 C 117.695312 92.5 116.1875 90.53125 116.1875 86.625 C 116.1875 82.722656 118.84375 80.289062 123.929688 80.289062 C 128.5625 80.289062 131.234375 82.007812 132.332031 85.980469 C 132.449219 86.414062 132.695312 86.800781 133.03125 87.074219 C 133.367188 87.347656 133.78125 87.5 134.203125 87.507812 L 138.269531 87.507812 C 138.535156 87.511719 138.800781 87.457031 139.042969 87.339844 C 139.285156 87.226562 139.5 87.054688 139.675781 86.839844 C 139.847656 86.628906 139.976562 86.375 140.046875 86.101562 C 140.117188 85.832031 140.132812 85.542969 140.089844 85.265625 C 138.800781 78.980469 134.824219 75.199219 128.589844 74.015625 L 128.589844 67.386719 C 128.589844 66.839844 128.386719 66.316406 128.023438 65.929688 C 127.660156 65.542969 127.167969 65.324219 126.652344 65.324219 L 122.78125 65.324219 C 122.269531 65.324219 121.777344 65.542969 121.414062 65.929688 C 121.050781 66.316406 120.847656 66.839844 120.847656 67.386719 L 120.847656 73.78125 C 113.101562 74.9375 108.210938 80.382812 108.210938 87.371094 C 108.210938 96.402344 113.371094 99.910156 124.164062 101.464844 C 131.507812 102.742188 133.597656 104.433594 133.597656 108.878906 C 133.597656 113.320312 130.046875 116.304688 125.039062 116.304688 C 118.289062 116.304688 116.007812 113.152344 115.246094 109.070312 C 115.15625 108.601562 114.917969 108.179688 114.574219 107.875 C 114.230469 107.566406 113.796875 107.398438 113.347656 107.390625 L 108.933594 107.390625 C 108.667969 107.390625 108.410156 107.449219 108.167969 107.566406 C 107.929688 107.683594 107.71875 107.855469 107.546875 108.066406 C 107.375 108.28125 107.25 108.53125 107.179688 108.804688 C 107.109375 109.074219 107.09375 109.355469 107.140625 109.632812 C 108.261719 116.507812 112.40625 121.542969 120.847656 122.753906 L 120.847656 129.269531 C 120.847656 129.816406 121.050781 130.34375 121.414062 130.730469 C 121.777344 131.117188 122.269531 131.332031 122.78125 131.332031 L 126.652344 131.332031 C 127.167969 131.332031 127.660156 131.117188 128.023438 130.730469 C 128.386719 130.34375 128.589844 129.816406 128.589844 129.269531 L 128.589844 122.753906 C 136.59375 121.40625 141.691406 115.519531 141.691406 108.132812 Z M 141.691406 108.132812 "/>
<path style=" stroke:none;fill-rule:nonzero;fill:rgb(17.254902%,17.254902%,17.254902%);fill-opacity:1;" d="M 111.601562 135.636719 C 103.550781 132.84375 96.597656 127.765625 91.6875 121.09375 C 86.777344 114.417969 84.140625 106.472656 84.140625 98.328125 C 84.140625 90.1875 86.777344 82.238281 91.6875 75.566406 C 96.597656 68.894531 103.550781 63.816406 111.601562 61.023438 C 112.117188 60.808594 112.558594 60.457031 112.875 60.015625 C 113.195312 59.574219 113.375 59.054688 113.398438 58.519531 L 113.398438 54.8125 C 113.429688 54.484375 113.375 54.15625 113.230469 53.855469 C 113.085938 53.554688 112.863281 53.296875 112.578125 53.101562 C 112.296875 52.910156 111.964844 52.792969 111.621094 52.761719 C 111.277344 52.730469 110.925781 52.785156 110.613281 52.921875 C 100.472656 55.992188 91.628906 62.042969 85.347656 70.207031 C 79.070312 78.371094 75.6875 88.21875 75.6875 98.328125 C 75.6875 108.441406 79.070312 118.289062 85.347656 126.453125 C 91.628906 134.613281 100.472656 140.667969 110.613281 143.738281 C 110.925781 143.875 111.277344 143.929688 111.621094 143.898438 C 111.964844 143.867188 112.296875 143.746094 112.578125 143.554688 C 112.863281 143.363281 113.085938 143.105469 113.230469 142.804688 C 113.375 142.503906 113.429688 142.171875 113.398438 141.84375 L 113.398438 138.136719 C 113.375 137.601562 113.195312 137.085938 112.875 136.644531 C 112.558594 136.199219 112.117188 135.851562 111.601562 135.636719 Z M 111.601562 135.636719 "/>
<path style=" stroke:none;fill-rule:nonzero;fill:rgb(17.254902%,17.254902%,17.254902%);fill-opacity:1;" d="M 138.195312 52.921875 C 137.878906 52.785156 137.53125 52.730469 137.183594 52.761719 C 136.839844 52.792969 136.507812 52.910156 136.226562 53.101562 C 135.945312 53.296875 135.71875 53.554688 135.578125 53.855469 C 135.433594 54.152344 135.375 54.484375 135.410156 54.8125 L 135.410156 58.519531 C 135.429688 59.054688 135.613281 59.574219 135.929688 60.015625 C 136.246094 60.457031 136.6875 60.808594 137.207031 61.023438 C 145.253906 63.816406 152.207031 68.894531 157.117188 75.566406 C 162.03125 82.238281 164.664062 90.1875 164.664062 98.328125 C 164.664062 106.472656 162.03125 114.417969 157.117188 121.09375 C 152.207031 127.765625 145.253906 132.84375 137.207031 135.636719 C 136.671875 135.828125 136.214844 136.171875 135.894531 136.617188 C 135.570312 137.066406 135.402344 137.597656 135.410156 138.136719 L 135.410156 141.84375 C 135.375 142.171875 135.433594 142.503906 135.578125 142.804688 C 135.71875 143.105469 135.945312 143.363281 136.226562 143.554688 C 136.507812 143.746094 136.839844 143.867188 137.183594 143.898438 C 137.53125 143.929688 137.878906 143.875 138.195312 143.738281 C 148.332031 140.667969 157.179688 134.613281 163.457031 126.449219 C 169.734375 118.289062 173.117188 108.441406 173.117188 98.328125 C 173.117188 88.21875 169.734375 78.371094 163.457031 70.207031 C 157.179688 62.042969 148.332031 55.992188 138.195312 52.921875 Z M 138.195312 52.921875 "/>
</g>
</svg>
